dist/img/sprites/product-ico-6.svg

<svg width="142" height="142" viewBox="0 0 142 142" fill="none" xmlns="http://www.w3.org/2000/svg">
<g clip-path="url(#clip0_809_1086)">
<path fill-rule="evenodd" clip-rule="evenodd" d="M90.1997 70.52C86.8797 70.1 83.6997 69.71 83.6997 67.14C83.6997 66.83 83.5797 63.21 89.6797 63.21C95.9697 63.21 96.4097 67.64 96.4097 67.64H99.4297H102.45L102.32 66.56C102.13 64.94 100.64 58.37 89.1397 58.37C87.9397 58.37 77.6897 58.75 77.6897 67.54C77.6897 71.62 79.3497 74.54 88.5697 75.56C96.4797 76.43 96.8497 78.42 96.8497 79.39C96.8497 82.87 93.9797 83.74 90.3797 83.74C85.6597 83.74 83.8897 81.37 83.3597 79.8L82.9997 78.72H76.9697V79.27C76.9697 80.19 77.6397 88.58 90.7197 88.58C99.8697 88.58 103.01 83.39 103.01 79.21C103.01 75.57 101.47 71.73 90.1997 70.52Z" fill="black"/>
<path fill-rule="evenodd" clip-rule="evenodd" d="M26.3099 60.28V66.56C26.3099 67.29 26.9099 67.89 27.6399 67.89H44.6699V73.44H27.6399C26.9099 73.44 26.3099 74.04 26.3099 74.77V81.32C26.3099 82.05 26.9099 82.65 27.6399 82.65H44.7999V88.19H20.3799V59.51C20.3799 58.92 20.6099 58.36 21.0299 57.94L25.1999 53.78C25.6199 53.36 26.1799 53.13 26.7699 53.13H44.7999V58.94H27.6399C26.8999 58.95 26.3099 59.54 26.3099 60.28Z" fill="black"/>
<path d="M120.64 58.76V64.6H112.3C111.57 64.6 110.97 65.2 110.97 65.93V88.2H104.95V65.07C104.95 64.48 105.18 63.92 105.6 63.5L109.7 59.4C110.12 58.98 110.68 58.75 111.27 58.75H120.64V58.76Z" fill="black"/>
<path fill-rule="evenodd" clip-rule="evenodd" d="M63.32 58.36C58.8 58.36 55.85 60.77 54.53 62.77H53.68V58.74H47.96V88.2H53.95C53.95 88.2 53.95 77.33 53.95 74.39C53.95 66.59 57.77 64.23 62.3 64.23C64.6 64.23 66.57 65.04 67.77 67.14C68.95 69.21 69.04 69.63 69.04 79.43V88.2H75.12V71.3C75.02 67.13 73.96 58.36 63.32 58.36Z" fill="black"/>
<path d="M70.6498 138.02C107.857 138.02 138.02 107.857 138.02 70.65C138.02 33.4426 107.857 3.28003 70.6498 3.28003C33.4424 3.28003 3.27979 33.4426 3.27979 70.65C3.27979 107.857 33.4424 138.02 70.6498 138.02Z" stroke="black" stroke-width="6.5634" stroke-miterlimit="10"/>
</g>
<defs>
<clipPath id="clip0_809_1086">
<rect width="141.3" height="141.3" fill="white"/>
</clipPath>
</defs>
</svg>

<svg width="142" height="142" viewBox="0 0 142 142" fill="none" xmlns="http://www.w3.org/2000/svg"><g clip-path="url(#clip0_809_1086)"><path fill-rule="evenodd" clip-rule="evenodd" d="M90.2 70.52c-3.32-.42-6.5-.81-6.5-3.38 0-.31-.12-3.93 5.98-3.93 6.29 0 6.73 4.43 6.73 4.43h6.04l-.13-1.08c-.19-1.62-1.68-8.19-13.18-8.19-1.2 0-11.45.38-11.45 9.17 0 4.08 1.66 7 10.88 8.02 7.91.87 8.28 2.86 8.28 3.83 0 3.48-2.87 4.35-6.47 4.35-4.72 0-6.49-2.37-7.02-3.94L83 78.72h-6.03v.55c0 .92.67 9.31 13.75 9.31 9.15 0 12.29-5.19 12.29-9.37 0-3.64-1.54-7.48-12.81-8.69zM26.31 60.28v6.28c0 .73.6 1.33 1.33 1.33h17.03v5.55H27.64c-.73 0-1.33.6-1.33 1.33v6.55c0 .73.6 1.33 1.33 1.33H44.8v5.54H20.38V59.51c0-.59.23-1.15.65-1.57l4.17-4.16c.42-.42.98-.65 1.57-.65H44.8v5.81H27.64c-.74.01-1.33.6-1.33 1.34z" fill="#000"/><path d="M120.64 58.76v5.84h-8.34c-.73 0-1.33.6-1.33 1.33V88.2h-6.02V65.07c0-.59.23-1.15.65-1.57l4.1-4.1c.42-.42.98-.65 1.57-.65h9.37v.01z" fill="#000"/><path fill-rule="evenodd" clip-rule="evenodd" d="M63.32 58.36c-4.52 0-7.47 2.41-8.79 4.41h-.85v-4.03h-5.72V88.2h5.99V74.39c0-7.8 3.82-10.16 8.35-10.16 2.3 0 4.27.81 5.47 2.91 1.18 2.07 1.27 2.49 1.27 12.29v8.77h6.08V71.3c-.1-4.17-1.16-12.94-11.8-12.94z" fill="#000"/><path d="M70.65 138.02c37.207 0 67.37-30.163 67.37-67.37 0-37.207-30.163-67.37-67.37-67.37-37.208 0-67.37 30.163-67.37 67.37 0 37.207 30.162 67.37 67.37 67.37z" stroke="#000" stroke-width="6.563" stroke-miterlimit="10"/></g><defs><clipPath id="clip0_809_1086"><path fill="#fff" d="M0 0h141.3v141.3H0z"/></clipPath></defs></svg>
